X:872
T:Salvation Reel, The
R:reel
C:Simon Bradley
Z:id:hn-reel-872
M:C|
L:1/8
K:A
EGAE GAEG | A2cA BAFA | ~B3A BAFA | dAcA BAFA |
EGAE GAEG | A2cA BAFA | ~c3A BFAF | EFAB cA~A2 :|
|: BceB ceBc | effe cBce | ~f3a fece | agaf ecBA |
cdec defg | agaf eAce | fecA B2AB | cBAE FAE2 :|

